svg/color/eql.svg

<?xml version="1.0" encoding="UTF-8" ?>
<!DOCTYPE svg PUBLIC "-//W3C//DTD SVG 1.1//EN" "http://www.w3.org/Graphics/SVG/1.1/DTD/svg11.dtd">
<svg width="250pt" height="250pt" viewBox="0 0 250 250" version="1.1" xmlns="http://www.w3.org/2000/svg">
<g id="#fefeffff">
<path fill="#fefeff" opacity="1.00" d=" M 0.00 0.00 L 250.00 0.00 L 250.00 250.00 L 0.00 250.00 L 0.00 0.00 M 128.71 38.12 C 110.87 40.87 94.38 49.00 78.88 57.91 C 69.05 63.78 59.04 69.74 51.02 78.02 C 45.52 83.59 41.80 90.68 39.47 98.11 C 36.77 106.50 37.25 115.55 38.58 124.15 C 43.35 143.91 52.75 162.25 63.70 179.26 C 70.41 188.70 78.03 197.86 87.94 204.08 C 95.43 208.75 104.25 210.91 113.00 211.35 C 121.80 210.70 130.73 209.49 138.96 206.13 C 154.62 200.96 169.22 192.99 182.98 183.99 C 190.07 179.65 196.35 174.02 201.79 167.76 C 209.59 158.81 214.38 146.94 213.57 134.97 C 213.01 118.90 206.41 103.85 199.28 89.70 C 190.46 73.43 180.72 56.75 165.33 45.84 C 154.74 38.46 141.34 36.17 128.71 38.12 Z" />
<path fill="#fefeff" opacity="1.00" d=" M 130.29 70.44 C 134.93 69.02 140.46 71.12 141.94 75.97 C 143.94 79.99 141.67 84.83 137.93 86.88 C 120.29 97.00 102.46 106.80 84.72 116.74 C 79.96 119.87 72.74 117.32 71.11 111.84 C 69.61 107.88 71.47 103.11 75.21 101.16 C 92.37 91.26 109.86 81.94 127.01 72.03 C 128.07 71.44 129.14 70.85 130.29 70.44 Z" />
<path fill="#fefeff" opacity="1.00" d=" M 150.17 100.97 C 156.04 99.92 161.78 106.20 160.20 112.01 C 159.34 116.45 154.95 118.47 151.35 120.36 C 135.24 129.67 118.82 138.45 102.73 147.81 C 99.41 149.97 94.80 149.82 91.80 147.17 C 88.51 144.42 87.36 139.23 89.65 135.51 C 91.43 132.54 94.81 131.29 97.65 129.60 C 113.28 120.55 129.19 111.99 144.87 103.02 C 146.53 102.09 148.29 101.29 150.17 100.97 Z" />
<path fill="#fefeff" opacity="1.00" d=" M 166.52 132.77 C 170.93 131.27 176.27 133.63 177.78 138.11 C 179.88 142.33 177.81 147.73 173.61 149.71 C 156.06 159.44 138.63 169.42 121.06 179.13 C 117.60 181.30 112.57 181.48 109.49 178.53 C 105.32 175.16 105.20 167.86 109.67 164.70 C 124.94 155.45 140.92 147.40 156.21 138.19 C 159.60 136.30 162.85 134.09 166.52 132.77 Z" />
</g>
<g id="#7557eaff">
<path fill="#7557ea" opacity="1.00" d=" M 128.71 38.12 C 141.34 36.17 154.74 38.46 165.33 45.84 C 180.72 56.75 190.46 73.43 199.28 89.70 C 206.41 103.85 213.01 118.90 213.57 134.97 C 214.38 146.94 209.59 158.81 201.79 167.76 C 196.35 174.02 190.07 179.65 182.98 183.99 C 169.22 192.99 154.62 200.96 138.96 206.13 C 130.73 209.49 121.80 210.70 113.00 211.35 C 104.25 210.91 95.43 208.75 87.94 204.08 C 78.03 197.86 70.41 188.70 63.70 179.26 C 52.75 162.25 43.35 143.91 38.58 124.15 C 37.25 115.55 36.77 106.50 39.47 98.11 C 41.80 90.68 45.52 83.59 51.02 78.02 C 59.04 69.74 69.05 63.78 78.88 57.91 C 94.38 49.00 110.87 40.87 128.71 38.12 M 130.29 70.44 C 129.14 70.85 128.07 71.44 127.01 72.03 C 109.86 81.94 92.37 91.26 75.21 101.16 C 71.47 103.11 69.61 107.88 71.11 111.84 C 72.74 117.32 79.96 119.87 84.72 116.74 C 102.46 106.80 120.29 97.00 137.93 86.88 C 141.67 84.83 143.94 79.99 141.94 75.97 C 140.46 71.12 134.93 69.02 130.29 70.44 M 150.17 100.97 C 148.29 101.29 146.53 102.09 144.87 103.02 C 129.19 111.99 113.28 120.55 97.65 129.60 C 94.81 131.29 91.43 132.54 89.65 135.51 C 87.36 139.23 88.51 144.42 91.80 147.17 C 94.80 149.82 99.41 149.97 102.73 147.81 C 118.82 138.45 135.24 129.67 151.35 120.36 C 154.95 118.47 159.34 116.45 160.20 112.01 C 161.78 106.20 156.04 99.92 150.17 100.97 M 166.52 132.77 C 162.85 134.09 159.60 136.30 156.21 138.19 C 140.92 147.40 124.94 155.45 109.67 164.70 C 105.20 167.86 105.32 175.16 109.49 178.53 C 112.57 181.48 117.60 181.30 121.06 179.13 C 138.63 169.42 156.06 159.44 173.61 149.71 C 177.81 147.73 179.88 142.33 177.78 138.11 C 176.27 133.63 170.93 131.27 166.52 132.77 Z" />
</g>
</svg>

<?xml version="1.0" encoding="utf-8"?>
<!-- Generator: Adobe Illustrator 26.0.3, SVG Export Plug-In . SVG Version: 6.00 Build 0)  -->
<svg version="1.1" id="Layer_1" xmlns="http://www.w3.org/2000/svg" xmlns:xlink="http://www.w3.org/1999/xlink" x="0px" y="0px"
	 viewBox="0 0 250 250" style="enable-background:new 0 0 250 250;" xml:space="preserve">
<style type="text/css">
	.st0{fill:#FEFEFF;}
	.st1{fill:#7557EA;}
</style>
<g id="_x23_fefeffff">
	<path class="st0" d="M130.3,70.4c4.6-1.4,10.2,0.7,11.7,5.5c2,4-0.3,8.9-4,10.9c-17.6,10.1-35.5,19.9-53.2,29.9
		c-4.8,3.1-12,0.6-13.6-4.9c-1.5-4,0.4-8.7,4.1-10.7C92.4,91.3,109.9,81.9,127,72C128.1,71.4,129.1,70.8,130.3,70.4z"/>
	<path class="st0" d="M150.2,101c5.9-1.1,11.6,5.2,10,11c-0.9,4.4-5.2,6.5-8.8,8.3c-16.1,9.3-32.5,18.1-48.6,27.4
		c-3.3,2.2-7.9,2-10.9-0.6c-3.3-2.8-4.4-7.9-2.2-11.7c1.8-3,5.2-4.2,8-5.9c15.6-9.1,31.5-17.6,47.2-26.6
		C146.5,102.1,148.3,101.3,150.2,101z"/>
	<path class="st0" d="M166.5,132.8c4.4-1.5,9.8,0.9,11.3,5.3c2.1,4.2,0,9.6-4.2,11.6c-17.6,9.7-35,19.7-52.6,29.4
		c-3.5,2.2-8.5,2.3-11.6-0.6c-4.2-3.4-4.3-10.7,0.2-13.8c15.3-9.2,31.2-17.3,46.5-26.5C159.6,136.3,162.9,134.1,166.5,132.8z"/>
</g>
<g id="_x23_7557eaff">
	<path class="st1" d="M128.7,38.1c12.6-2,26,0.3,36.6,7.7c15.4,10.9,25.1,27.6,33.9,43.9c7.1,14.2,13.7,29.2,14.3,45.3
		c0.8,12-4,23.8-11.8,32.8c-5.4,6.3-11.7,11.9-18.8,16.2c-13.8,9-28.4,17-44,22.1c-8.2,3.4-17.2,4.6-26,5.2
		c-8.8-0.4-17.6-2.6-25.1-7.3c-9.9-6.2-17.5-15.4-24.2-24.8c-11-17-20.4-35.3-25.1-55.1c-1.3-8.6-1.8-17.7,0.9-26
		c2.3-7.4,6-14.5,11.5-20.1c8-8.3,18-14.2,27.9-20.1C94.4,49,110.9,40.9,128.7,38.1 M130.3,70.4c-1.1,0.4-2.2,1-3.3,1.6
		c-17.2,9.9-34.6,19.2-51.8,29.1c-3.7,1.9-5.6,6.7-4.1,10.7c1.6,5.5,8.8,8,13.6,4.9c17.7-9.9,35.6-19.7,53.2-29.9
		c3.7-2,6-6.9,4-10.9C140.5,71.1,134.9,69,130.3,70.4 M150.2,101c-1.9,0.3-3.6,1.1-5.3,2c-15.7,9-31.6,17.5-47.2,26.6
		c-2.8,1.7-6.2,2.9-8,5.9c-2.3,3.7-1.1,8.9,2.2,11.7c3,2.7,7.6,2.8,10.9,0.6c16.1-9.4,32.5-18.1,48.6-27.4c3.6-1.9,8-3.9,8.8-8.3
		C161.8,106.2,156,99.9,150.2,101 M166.5,132.8c-3.7,1.3-6.9,3.5-10.3,5.4c-15.3,9.2-31.3,17.3-46.5,26.5
		c-4.5,3.2-4.3,10.5-0.2,13.8c3.1,2.9,8.1,2.8,11.6,0.6c17.6-9.7,35-19.7,52.6-29.4c4.2-2,6.3-7.4,4.2-11.6
		C176.3,133.6,170.9,131.3,166.5,132.8z"/>
</g>
</svg>
